X:28
T:Darling of the Uist Lasses, The
T:Mac a'Bhaillidh \'a Uist
R:Reel
S:Simon Fraser Collection
N:No.69
O:Scottish
M:C
L:1/8
K:D
B|AGFd F/G/A d2|fdAF E/E/E B2|AGFd F/G/A d2|fdAF E2 D:|
g|fdfa bggb|affa geeg|fdfa bggb|afdf e2 dg|fdfa bggb|afdf bgeg|
fgaf gabg|afdf e2 d||

